X:37 
T:Crooked Stovepipe 
M:4/4 
L:1/4 
K:G 
|:"G"GB B/2c/2d/2B/2 | GB B/2c/2d/2B/2 |"G"GB e>B |"Am"dc c/2d/2c/2A/2 | 
"D"FA A/2B/2c/2A/2 | FA A/2B/2c/2d/2 |"D"e>d ef |1 "G"gf/2e/2 "D"d/2c/2B/2A/2 :|2"G"gg a^a || 
"G"b>c' ba | g2 gf |"C"ee fg |"Am"a3 b |"D"c'>d' c'a | f3 e | dd ef |"G"gg a^a | 
"G"b>c' ba | g2 gf |"C"ee fg |"Am"a3 b |"D"c'>c' c'a | f3 e | dd ef |"G"gf/2e/2 "D"d/2c/2B/2A/2 |]
